X:1
T:Hell in Texas
M:6/8
L:1/8
K:Eb
 z4 z B/2B/2| cBBB-G G| FEG B,2 B,| CEEF-E F| GBB B2 B| cBBB-G G|F-E G B,2 B,/2B,/2|\
 CEE FEF| GEF E2 E| CEEC-E E|D-E E B,2 B,/2B,/2| CEEF-E F|G-B B B2 B/2B/2|\
c-B B BGG| FEG B,2 B,| CEEF-E F|G-E E E3-| E2 z4|
